X: 7430
T:Medieval french tunes
O:France
M:2/4
L:1/8
K:ADor
FA AG|A2AA|GG EG|A2 AG|\
FA AG|A2 AA|GA/G/ EG|AzzA::
B2 Bc|A2 G(A|A)G EG|B>A G2|\
B2 Bc|A2 G(A|A)G EG|A2z2::
B|\
ce dB|ce dB|ce dc|B3B|Ac BA|G2 (E2|E3)B|\
ce dB|ce dB|ce dc|B3 A/B/|cA AG|A3 ::
E|\
AB cd|e2 f2|g2 f2|e2dc|BA cB|c3E|\
AB cd|e2 f2|g2 f2|e2dc|BA cB|A3:|
